X:241
T: Lichtmessgesang
N: A0600
O: Europa, Mitteleuropa, Deutschland
N: Beuttner 1602 II No. 82.
R: Romanze, Ballade, Lied, religioeses Lied
M: 4/2
L: 1/2
K: G
A | A2A2 | c2_B2 | A_Bc2 | _B2z
B | A2G2 | AG=FE | DEF2 | G2z
G | DEF2 | G3c | _BBAA | G3

@@@ Tune index: 554
